img/search.svg

<svg width="16" height="16" viewBox="0 0 16 16" fill="none" xmlns="http://www.w3.org/2000/svg">
<path fill-rule="evenodd" clip-rule="evenodd" d="M7.33325 2.66668C4.75592 2.66668 2.66659 4.75601 2.66659 7.33334C2.66659 9.91067 4.75592 12 7.33325 12C9.91058 12 11.9999 9.91067 11.9999 7.33334C11.9999 4.75601 9.91058 2.66668 7.33325 2.66668ZM1.33325 7.33334C1.33325 4.01963 4.01954 1.33334 7.33325 1.33334C10.647 1.33334 13.3333 4.01963 13.3333 7.33334C13.3333 10.6471 10.647 13.3333 7.33325 13.3333C4.01954 13.3333 1.33325 10.6471 1.33325 7.33334Z" fill="white"/>
<path fill-rule="evenodd" clip-rule="evenodd" d="M10.6286 10.6286C10.889 10.3682 11.3111 10.3682 11.5714 10.6286L14.4714 13.5286C14.7318 13.7889 14.7318 14.211 14.4714 14.4714C14.2111 14.7317 13.789 14.7317 13.5286 14.4714L10.6286 11.5714C10.3683 11.311 10.3683 10.8889 10.6286 10.6286Z" fill="white"/>
</svg>

<svg xmlns="http://www.w3.org/2000/svg" width="16" height="16" fill="#fff"  fill-rule="evenodd"><path d="M7.333 2.667a4.67 4.67 0 0 0-4.667 4.667A4.67 4.67 0 0 0 7.333 12 4.67 4.67 0 0 0 12 7.333a4.67 4.67 0 0 0-4.667-4.667zm-6 4.667a6 6 0 1 1 12 0 6 6 0 1 1-12 0z"/><path d="M10.629 10.629c.26-.26.682-.26.943 0l2.9 2.9c.26.26.26.682 0 .943s-.682.26-.943 0l-2.9-2.9c-.26-.26-.26-.683 0-.943z"/></svg>
